X:3
T:Hickey's
R:reel
D:Marcus Moloney sur Michel Sikiotakis  le voyage en Irlande
M:C|
K:A
A2(3Bcd edcA|~B3c dcBc|AEEA F3G|AAGE FECE|
AE~E2 AEcA|B3c dcBA|ce (3eee ffed |1 ceBe Afec:|2 ceBe Aaed||
K:C
|:c3d ecAc|~B3c deed|eedB cBAB|cABG AAGA|
EA (3AAA ABce |B3c d3f|eedB cdAB|1 cABc AedB:|2 cABc Aaed||
